X: 39052
T: Sweating Like A Pig
R: jig
M: 6/8
K: Gmajor
gdB GFG|EAc e2e|fgf def|gBe def|
gdB GFG|EAc ede|fef def|gGG G2 f:|
gd_B GFG|DG_B d2e|=fcA =FE=F|c=FA cdc|
_BGD _B,DG|_Bd=f g2 a|_bag fga|gag g2 f:|

